resources/haticons/SVG/download2.svg

<!-- Generated by IcoMoon.io -->
<svg version="1.1" xmlns="http://www.w3.org/2000/svg" width="24" height="24" viewBox="0 0 24 24">
<title>download2</title>
<path d="M21 12h-3.75l-5.25 5.25-5.25-5.25h-3.75l-3 6v1.5h24v-1.5l-3-6zM0 21h24v1.5h-24v-1.5zM13.5 7.5v-6h-3v6h-5.25l6.75 6.75 6.75-6.75h-5.25z"></path>
</svg>

<svg xmlns="http://www.w3.org/2000/svg" width="24" height="24"><path d="M21 12h-3.75L12 17.25 6.75 12H3l-3 6v1.5h24V18l-3-6zM0 21h24v1.5H0V21zM13.5 7.5v-6h-3v6H5.25L12 14.25l6.75-6.75H13.5z"/></svg>
